report_00007_2020-12-11T15:55:29.892Z/network-server-latency/comparison/sorted/12_vs_13.svg

<svg width="640" height="500" xmlns="http://www.w3.org/2000/svg" xmlns:xlink="http://www.w3.org/1999/xlink"><path fill="#fff" d="M0 0h640v500H0z"/><defs><path id="d" stroke-width=".222" stroke="currentColor" d="M-1-1h2v2h-2z"/><path id="b" stroke-width=".222" stroke="currentColor" d="M0-1.33l-1.33 2h2.66z"/><path id="f" stroke-width=".222" stroke="currentColor" d="M0 1.33L1.265.411.782-1.067l-1.564-.009-.483 1.487z"/><use xlink:href="#b" id="c" stroke="currentColor" transform="rotate(180)"/><use xlink:href="#d" id="e" stroke="currentColor" transform="rotate(45)"/><circle id="a" stroke-width=".222" stroke="currentColor" cx="0" cy="0" r="1"/></defs><g fill="none" color="#000" stroke="currentColor"><path stroke="#000" d="M53.9 360.1h9m552.1 0h-9"/><text transform="translate(45.6 364)" stroke="none" fill="#000" font-family="Arial" font-size="12" text-anchor="end"><tspan>3.5</tspan></text></g><g fill="none" color="#000" stroke="currentColor"><path stroke="#000" d="M53.9 283.5h9m552.1 0h-9"/><text transform="translate(45.6 287.4)" stroke="none" fill="#000" font-family="Arial" font-size="12" text-anchor="end"><tspan>4</tspan></text></g><g fill="none" color="#000" stroke="currentColor"><path stroke="#000" d="M53.9 206.9h9m552.1 0h-9"/><text transform="translate(45.6 210.8)" stroke="none" fill="#000" font-family="Arial" font-size="12" text-anchor="end"><tspan>4.5</tspan></text></g><g fill="none" color="#000" stroke="currentColor"><path stroke="#000" d="M53.9 130.3h9m552.1 0h-9"/><text transform="translate(45.6 134.2)" stroke="none" fill="#000" font-family="Arial" font-size="12" text-anchor="end"><tspan>5</tspan></text></g><g fill="none" color="#000" stroke="currentColor"><path stroke="#000" d="M53.9 53.7h9m552.1 0h-9"/><text transform="translate(45.6 57.6)" stroke="none" fill="#000" font-family="Arial" font-size="12" text-anchor="end"><tspan>5.5</tspan></text></g><g fill="none" color="#000" stroke="currentColor"><path stroke="#000" d="M53.9 428v-9m0-400.9v9"/><text transform="translate(53.9 449.9)" stroke="none" fill="#000" font-family="Arial" font-size="12" text-anchor="middle"><tspan>0</tspan></text></g><g fill="none" color="#000" stroke="currentColor"><path stroke="#000" d="M110.6 428v-9m0-400.9v9"/><text transform="translate(110.6 449.9)" stroke="none" fill="#000" font-family="Arial" font-size="12" text-anchor="middle"><tspan>10</tspan></text></g><g fill="none" color="#000" stroke="currentColor"><path stroke="#000" d="M167.3 428v-9m0-400.9v9"/><text transform="translate(167.3 449.9)" stroke="none" fill="#000" font-family="Arial" font-size="12" text-anchor="middle"><tspan>20</tspan></text></g><g fill="none" color="#000" stroke="currentColor"><path stroke="#000" d="M223.9 428v-9m0-400.9v9"/><text transform="translate(223.9 449.9)" stroke="none" fill="#000" font-family="Arial" font-size="12" text-anchor="middle"><tspan>30</tspan></text></g><g fill="none" color="#000" stroke="currentColor"><path stroke="#000" d="M280.6 428v-9m0-400.9v9"/><text transform="translate(280.6 449.9)" stroke="none" fill="#000" font-family="Arial" font-size="12" text-anchor="middle"><tspan>40</tspan></text></g><g fill="none" color="#000" stroke="currentColor"><path stroke="#000" d="M337.3 428v-9m0-400.9v9"/><text transform="translate(337.3 449.9)" stroke="none" fill="#000" font-family="Arial" font-size="12" text-anchor="middle"><tspan>50</tspan></text></g><g fill="none" color="#000" stroke="currentColor"><path stroke="#000" d="M394 428v-9m0-400.9v9"/><text transform="translate(394 449.9)" stroke="none" fill="#000" font-family="Arial" font-size="12" text-anchor="middle"><tspan>60</tspan></text></g><g fill="none" color="#000" stroke="currentColor"><path stroke="#000" d="M450.6 428v-9m0-400.9v9"/><text transform="translate(450.6 449.9)" stroke="none" fill="#000" font-family="Arial" font-size="12" text-anchor="middle"><tspan>70</tspan></text></g><g fill="none" color="#000" stroke="currentColor"><path stroke="#000" d="M507.3 428v-9m0-400.9v9"/><text transform="translate(507.3 449.9)" stroke="none" fill="#000" font-family="Arial" font-size="12" text-anchor="middle"><tspan>80</tspan></text></g><g fill="none" color="#000" stroke="currentColor"><path stroke="#000" d="M564 428v-9m0-400.9v9"/><text transform="translate(564 449.9)" stroke="none" fill="#000" font-family="Arial" font-size="12" text-anchor="middle"><tspan>90</tspan></text></g><path stroke="#000" d="M53.9 18.1V428H615V18.1H53.9z" fill="none" color="#000"/><text transform="translate(529.1 467.9)" stroke="none" fill="#000" font-family="Arial" font-size="12" text-anchor="end" color="#000"><tspan>pages+cached+noexternal+nofonts+nosvg+noimg+nocss</tspan></text><path stroke="#9400D3" d="M537.4 464h42.2M53.9 420.1l5.7-20.1 5.6-14.6 5.7-18.8 5.7-4.9 5.6-2 5.7-3.8 5.7-.7 5.6-9.9 5.7-.9 5.7-2 5.6-1.2 5.7-3 5.7-3.7 5.6-6.5 5.7-2.3 5.7-1.4 5.7-.6 5.6-.5 5.7-1.5 5.7-.1 5.6-.2 5.7-.2 5.7-1.8 5.6-.4 5.7-1.8 5.7-4.1 5.6-1.8 5.7-1.1 5.7-3.2 5.6-1.4 5.7-3.6 5.7-.8 5.6-4.4 5.7-.2 5.7-.2 5.6-3.8 5.7-.9 5.7-.7 5.6-6.1 5.7-2 5.7-2.8 5.6-.4 5.7-.1 5.7-.6h5.6l5.7-.9 5.7-.6 5.6-.9 5.7-1.1 5.7-2.8 5.7-4.5 5.6-.4 5.7-.9 5.7-.8 5.6-5.7 5.7-1.7 5.7-.9 5.6-5.7h5.7l5.7-.6 5.6-1.3 5.7-1.2 5.7-9.1 5.6-.4 5.7-.2 5.7-2.3 5.6-1 5.7-1.3 5.7-.7 5.6-1.4 5.7-.5 5.7-.1 5.6-5.9 5.7-1.6 5.7-2.1 5.6-.9 5.7-1.3 5.7-2.4 5.6-.5 5.7-3.5 5.7-15.7 5.6-6.8 5.7-1 5.7-3.9 5.7-10.5 5.6-3.6 5.7-3.6 5.7-12.8 5.6-6.4 5.7-1.7 5.7-.6 5.6-7.5 5.7-6.7 5.7-15.6 5.6-.9 5.7-26.7 5.7-3.8 5.6-6.2 5.7-10.6" fill="none" color="#000"/><text transform="translate(529.1 485.9)" stroke="none" fill="#000" font-family="Arial" font-size="12" text-anchor="end" color="#000"><tspan>pages+cached+noexternal+nofonts+nosvg+noimg+nocss+nojs</tspan></text><path stroke="#009E73" d="M537.4 482h42.2M53.9 366.6l5.7-27.4 5.6-8.4 5.7-7 5.7-8.4 5.6-.3 5.7-1.3 5.7-11.8 5.6-9.7 5.7-11.6 5.7-2.6 5.6-9.7 5.7-7.5 5.7-6.2 5.6-4.3 5.7-1.1 5.7-9.4 5.7-9.9 5.6-.3 5.7-3.1 5.7-3.8 5.6-1.6 5.7-.5 5.7-1.7 5.6-1 5.7-5.1 5.7-.7 5.6-1.7 5.7-1.8 5.7-1 5.6-2.7 5.7-2 5.7-5.2 5.6-5.3 5.7-5.3 5.7-1.9 5.6-2.2 5.7-.2h5.7l5.6-.2 5.7-.3 5.7-.4 5.6-2.3 5.7-.3 5.7-.8 5.6-4.3 5.7-.9 5.7-4.9 5.6-4.8 5.7-2.3 5.7-.3 5.7-.9 5.6-2.1 5.7-.5 5.7-.9 5.6-1 5.7-3.4 5.7-.7 5.6-.1 5.7-.4 5.7-1.1 5.6-1.6 5.7-1.4 5.7-.9 5.6-.6 5.7-.5 5.7-4.1 5.6-4.2 5.7-.9 5.7-1.6 5.6-1 5.7-.2 5.7-2.4 5.6-.2 5.7-3.3 5.7-.6 5.6-.1 5.7-.1 5.7-8.2 5.6-1.5 5.7-.8 5.7-.9 5.6-5.4 5.7-1.1 5.7-6.1 5.7-1.4 5.6-1.9 5.7-.2 5.7-4.2 5.6-.7 5.7-4.4 5.7-3.4 5.6-1.6L581 83l5.7-2.9 5.6-1.1 5.7-28.4 5.7-.6 5.6-8.6L615 26" fill="none" color="#000"/><g fill="none" color="#000" stroke="currentColor"><path stroke="#000" d="M53.9 18.1V428H615V18.1H53.9z"/></g></svg>

<?xml version="1.0" encoding="utf-8"  standalone="no"?>
<svg 
 width="640" height="500"
 viewBox="0 0 640 500"
 xmlns="http://www.w3.org/2000/svg"
 xmlns:xlink="http://www.w3.org/1999/xlink"
>

<title>Gnuplot</title>
<desc>Produced by GNUPLOT 5.4 patchlevel 0 </desc>

<g id="gnuplot_canvas">

<rect x="0" y="0" width="640" height="500" fill="#ffffff"/>
<defs>

	<circle id='gpDot' r='0.5' stroke-width='0.5' stroke='currentColor'/>
	<path id='gpPt0' stroke-width='0.222' stroke='currentColor' d='M-1,0 h2 M0,-1 v2'/>
	<path id='gpPt1' stroke-width='0.222' stroke='currentColor' d='M-1,-1 L1,1 M1,-1 L-1,1'/>
	<path id='gpPt2' stroke-width='0.222' stroke='currentColor' d='M-1,0 L1,0 M0,-1 L0,1 M-1,-1 L1,1 M-1,1 L1,-1'/>
	<rect id='gpPt3' stroke-width='0.222' stroke='currentColor' x='-1' y='-1' width='2' height='2'/>
	<rect id='gpPt4' stroke-width='0.222' stroke='currentColor' fill='currentColor' x='-1' y='-1' width='2' height='2'/>
	<circle id='gpPt5' stroke-width='0.222' stroke='currentColor' cx='0' cy='0' r='1'/>
	<use xlink:href='#gpPt5' id='gpPt6' fill='currentColor' stroke='none'/>
	<path id='gpPt7' stroke-width='0.222' stroke='currentColor' d='M0,-1.33 L-1.33,0.67 L1.33,0.67 z'/>
	<use xlink:href='#gpPt7' id='gpPt8' fill='currentColor' stroke='none'/>
	<use xlink:href='#gpPt7' id='gpPt9' stroke='currentColor' transform='rotate(180)'/>
	<use xlink:href='#gpPt9' id='gpPt10' fill='currentColor' stroke='none'/>
	<use xlink:href='#gpPt3' id='gpPt11' stroke='currentColor' transform='rotate(45)'/>
	<use xlink:href='#gpPt11' id='gpPt12' fill='currentColor' stroke='none'/>
	<path id='gpPt13' stroke-width='0.222' stroke='currentColor' d='M0,1.330 L1.265,0.411 L0.782,-1.067 L-0.782,-1.076 L-1.265,0.411 z'/>
	<use xlink:href='#gpPt13' id='gpPt14' fill='currentColor' stroke='none'/>
	<filter id='textbox' filterUnits='objectBoundingBox' x='0' y='0' height='1' width='1'>
	  <feFlood flood-color='#FFFFFF' flood-opacity='1' result='bgnd'/>
	  <feComposite in='SourceGraphic' in2='bgnd' operator='atop'/>
	</filter>
	<filter id='greybox' filterUnits='objectBoundingBox' x='0' y='0' height='1' width='1'>
	  <feFlood flood-color='lightgrey' flood-opacity='1' result='grey'/>
	  <feComposite in='SourceGraphic' in2='grey' operator='atop'/>
	</filter>
</defs>
<g fill="none" color="#FFFFFF" stroke="black" stroke-width="1.00" stroke-linecap="butt" stroke-linejoin="miter">
</g>
<g fill="none" color="black" stroke="currentColor" stroke-width="1.00" stroke-linecap="butt" stroke-linejoin="miter">
	<path stroke='black'  d='M53.9,360.1 L62.9,360.1 M615.0,360.1 L606.0,360.1  '/>	<g transform="translate(45.6,364.0)" stroke="none" fill="black" font-family="Arial" font-size="12.00"  text-anchor="end">
		<text><tspan font-family="Arial" > 3.5</tspan></text>
	</g>
</g>
<g fill="none" color="black" stroke="currentColor" stroke-width="1.00" stroke-linecap="butt" stroke-linejoin="miter">
	<path stroke='black'  d='M53.9,283.5 L62.9,283.5 M615.0,283.5 L606.0,283.5  '/>	<g transform="translate(45.6,287.4)" stroke="none" fill="black" font-family="Arial" font-size="12.00"  text-anchor="end">
		<text><tspan font-family="Arial" > 4</tspan></text>
	</g>
</g>
<g fill="none" color="black" stroke="currentColor" stroke-width="1.00" stroke-linecap="butt" stroke-linejoin="miter">
	<path stroke='black'  d='M53.9,206.9 L62.9,206.9 M615.0,206.9 L606.0,206.9  '/>	<g transform="translate(45.6,210.8)" stroke="none" fill="black" font-family="Arial" font-size="12.00"  text-anchor="end">
		<text><tspan font-family="Arial" > 4.5</tspan></text>
	</g>
</g>
<g fill="none" color="black" stroke="currentColor" stroke-width="1.00" stroke-linecap="butt" stroke-linejoin="miter">
	<path stroke='black'  d='M53.9,130.3 L62.9,130.3 M615.0,130.3 L606.0,130.3  '/>	<g transform="translate(45.6,134.2)" stroke="none" fill="black" font-family="Arial" font-size="12.00"  text-anchor="end">
		<text><tspan font-family="Arial" > 5</tspan></text>
	</g>
</g>
<g fill="none" color="black" stroke="currentColor" stroke-width="1.00" stroke-linecap="butt" stroke-linejoin="miter">
	<path stroke='black'  d='M53.9,53.7 L62.9,53.7 M615.0,53.7 L606.0,53.7  '/>	<g transform="translate(45.6,57.6)" stroke="none" fill="black" font-family="Arial" font-size="12.00"  text-anchor="end">
		<text><tspan font-family="Arial" > 5.5</tspan></text>
	</g>
</g>
<g fill="none" color="black" stroke="currentColor" stroke-width="1.00" stroke-linecap="butt" stroke-linejoin="miter">
	<path stroke='black'  d='M53.9,428.0 L53.9,419.0 M53.9,18.1 L53.9,27.1  '/>	<g transform="translate(53.9,449.9)" stroke="none" fill="black" font-family="Arial" font-size="12.00"  text-anchor="middle">
		<text><tspan font-family="Arial" > 0</tspan></text>
	</g>
</g>
<g fill="none" color="black" stroke="currentColor" stroke-width="1.00" stroke-linecap="butt" stroke-linejoin="miter">
	<path stroke='black'  d='M110.6,428.0 L110.6,419.0 M110.6,18.1 L110.6,27.1  '/>	<g transform="translate(110.6,449.9)" stroke="none" fill="black" font-family="Arial" font-size="12.00"  text-anchor="middle">
		<text><tspan font-family="Arial" > 10</tspan></text>
	</g>
</g>
<g fill="none" color="black" stroke="currentColor" stroke-width="1.00" stroke-linecap="butt" stroke-linejoin="miter">
	<path stroke='black'  d='M167.3,428.0 L167.3,419.0 M167.3,18.1 L167.3,27.1  '/>	<g transform="translate(167.3,449.9)" stroke="none" fill="black" font-family="Arial" font-size="12.00"  text-anchor="middle">
		<text><tspan font-family="Arial" > 20</tspan></text>
	</g>
</g>
<g fill="none" color="black" stroke="currentColor" stroke-width="1.00" stroke-linecap="butt" stroke-linejoin="miter">
	<path stroke='black'  d='M223.9,428.0 L223.9,419.0 M223.9,18.1 L223.9,27.1  '/>	<g transform="translate(223.9,449.9)" stroke="none" fill="black" font-family="Arial" font-size="12.00"  text-anchor="middle">
		<text><tspan font-family="Arial" > 30</tspan></text>
	</g>
</g>
<g fill="none" color="black" stroke="currentColor" stroke-width="1.00" stroke-linecap="butt" stroke-linejoin="miter">
	<path stroke='black'  d='M280.6,428.0 L280.6,419.0 M280.6,18.1 L280.6,27.1  '/>	<g transform="translate(280.6,449.9)" stroke="none" fill="black" font-family="Arial" font-size="12.00"  text-anchor="middle">
		<text><tspan font-family="Arial" > 40</tspan></text>
	</g>
</g>
<g fill="none" color="black" stroke="currentColor" stroke-width="1.00" stroke-linecap="butt" stroke-linejoin="miter">
	<path stroke='black'  d='M337.3,428.0 L337.3,419.0 M337.3,18.1 L337.3,27.1  '/>	<g transform="translate(337.3,449.9)" stroke="none" fill="black" font-family="Arial" font-size="12.00"  text-anchor="middle">
		<text><tspan font-family="Arial" > 50</tspan></text>
	</g>
</g>
<g fill="none" color="black" stroke="currentColor" stroke-width="1.00" stroke-linecap="butt" stroke-linejoin="miter">
	<path stroke='black'  d='M394.0,428.0 L394.0,419.0 M394.0,18.1 L394.0,27.1  '/>	<g transform="translate(394.0,449.9)" stroke="none" fill="black" font-family="Arial" font-size="12.00"  text-anchor="middle">
		<text><tspan font-family="Arial" > 60</tspan></text>
	</g>
</g>
<g fill="none" color="black" stroke="currentColor" stroke-width="1.00" stroke-linecap="butt" stroke-linejoin="miter">
	<path stroke='black'  d='M450.6,428.0 L450.6,419.0 M450.6,18.1 L450.6,27.1  '/>	<g transform="translate(450.6,449.9)" stroke="none" fill="black" font-family="Arial" font-size="12.00"  text-anchor="middle">
		<text><tspan font-family="Arial" > 70</tspan></text>
	</g>
</g>
<g fill="none" color="black" stroke="currentColor" stroke-width="1.00" stroke-linecap="butt" stroke-linejoin="miter">
	<path stroke='black'  d='M507.3,428.0 L507.3,419.0 M507.3,18.1 L507.3,27.1  '/>	<g transform="translate(507.3,449.9)" stroke="none" fill="black" font-family="Arial" font-size="12.00"  text-anchor="middle">
		<text><tspan font-family="Arial" > 80</tspan></text>
	</g>
</g>
<g fill="none" color="black" stroke="currentColor" stroke-width="1.00" stroke-linecap="butt" stroke-linejoin="miter">
	<path stroke='black'  d='M564.0,428.0 L564.0,419.0 M564.0,18.1 L564.0,27.1  '/>	<g transform="translate(564.0,449.9)" stroke="none" fill="black" font-family="Arial" font-size="12.00"  text-anchor="middle">
		<text><tspan font-family="Arial" > 90</tspan></text>
	</g>
</g>
<g fill="none" color="black" stroke="currentColor" stroke-width="1.00" stroke-linecap="butt" stroke-linejoin="miter">
</g>
<g fill="none" color="black" stroke="currentColor" stroke-width="1.00" stroke-linecap="butt" stroke-linejoin="miter">
	<path stroke='black'  d='M53.9,18.1 L53.9,428.0 L615.0,428.0 L615.0,18.1 L53.9,18.1 Z  '/></g>
<g fill="none" color="black" stroke="currentColor" stroke-width="1.00" stroke-linecap="butt" stroke-linejoin="miter">
</g>
	<g id="gnuplot_plot_1" ><title>pages+cached+noexternal+nofonts+nosvg+noimg+nocss</title>
<g fill="none" color="black" stroke="currentColor" stroke-width="1.00" stroke-linecap="butt" stroke-linejoin="miter">
	<g transform="translate(529.1,467.9)" stroke="none" fill="black" font-family="Arial" font-size="12.00"  text-anchor="end">
		<text><tspan font-family="Arial" >pages+cached+noexternal+nofonts+nosvg+noimg+nocss</tspan></text>
	</g>
</g>
<g fill="none" color="black" stroke="currentColor" stroke-width="1.00" stroke-linecap="butt" stroke-linejoin="miter">
	<path stroke='rgb(148,   0, 211)'  d='M537.4,464.0 L579.6,464.0 M53.9,420.1 L59.6,400.0 L65.2,385.4 L70.9,366.6 L76.6,361.7 L82.2,359.7
		L87.9,355.9 L93.6,355.2 L99.2,345.3 L104.9,344.4 L110.6,342.4 L116.2,341.2 L121.9,338.2 L127.6,334.5
		L133.2,328.0 L138.9,325.7 L144.6,324.3 L150.3,323.7 L155.9,323.2 L161.6,321.7 L167.3,321.6 L172.9,321.4
		L178.6,321.2 L184.3,319.4 L189.9,319.0 L195.6,317.2 L201.3,313.1 L206.9,311.3 L212.6,310.2 L218.3,307.0
		L223.9,305.6 L229.6,302.0 L235.3,301.2 L240.9,296.8 L246.6,296.6 L252.3,296.4 L257.9,292.6 L263.6,291.7
		L269.3,291.0 L274.9,284.9 L280.6,282.9 L286.3,280.1 L291.9,279.7 L297.6,279.6 L303.3,279.0 L308.9,279.0
		L314.6,278.1 L320.3,277.5 L325.9,276.6 L331.6,275.5 L337.3,272.7 L343.0,268.2 L348.6,267.8 L354.3,266.9
		L360.0,266.1 L365.6,260.4 L371.3,258.7 L377.0,257.8 L382.6,252.1 L388.3,252.1 L394.0,251.5 L399.6,250.2
		L405.3,249.0 L411.0,239.9 L416.6,239.5 L422.3,239.3 L428.0,237.0 L433.6,236.0 L439.3,234.7 L445.0,234.0
		L450.6,232.6 L456.3,232.1 L462.0,232.0 L467.6,226.1 L473.3,224.5 L479.0,222.4 L484.6,221.5 L490.3,220.2
		L496.0,217.8 L501.6,217.3 L507.3,213.8 L513.0,198.1 L518.6,191.3 L524.3,190.3 L530.0,186.4 L535.7,175.9
		L541.3,172.3 L547.0,168.7 L552.7,155.9 L558.3,149.5 L564.0,147.8 L569.7,147.2 L575.3,139.7 L581.0,133.0
		L586.7,117.4 L592.3,116.5 L598.0,89.8 L603.7,86.0 L609.3,79.8 L615.0,69.2  '/></g>
	</g>
	<g id="gnuplot_plot_2" ><title>pages+cached+noexternal+nofonts+nosvg+noimg+nocss+nojs</title>
<g fill="none" color="black" stroke="currentColor" stroke-width="1.00" stroke-linecap="butt" stroke-linejoin="miter">
	<g transform="translate(529.1,485.9)" stroke="none" fill="black" font-family="Arial" font-size="12.00"  text-anchor="end">
		<text><tspan font-family="Arial" >pages+cached+noexternal+nofonts+nosvg+noimg+nocss+nojs</tspan></text>
	</g>
</g>
<g fill="none" color="black" stroke="currentColor" stroke-width="1.00" stroke-linecap="butt" stroke-linejoin="miter">
	<path stroke='rgb(  0, 158, 115)'  d='M537.4,482.0 L579.6,482.0 M53.9,366.6 L59.6,339.2 L65.2,330.8 L70.9,323.8 L76.6,315.4 L82.2,315.1
		L87.9,313.8 L93.6,302.0 L99.2,292.3 L104.9,280.7 L110.6,278.1 L116.2,268.4 L121.9,260.9 L127.6,254.7
		L133.2,250.4 L138.9,249.3 L144.6,239.9 L150.3,230.0 L155.9,229.7 L161.6,226.6 L167.3,222.8 L172.9,221.2
		L178.6,220.7 L184.3,219.0 L189.9,218.0 L195.6,212.9 L201.3,212.2 L206.9,210.5 L212.6,208.7 L218.3,207.7
		L223.9,205.0 L229.6,203.0 L235.3,197.8 L240.9,192.5 L246.6,187.2 L252.3,185.3 L257.9,183.1 L263.6,182.9
		L269.3,182.9 L274.9,182.7 L280.6,182.4 L286.3,182.0 L291.9,179.7 L297.6,179.4 L303.3,178.6 L308.9,174.3
		L314.6,173.4 L320.3,168.5 L325.9,163.7 L331.6,161.4 L337.3,161.1 L343.0,160.2 L348.6,158.1 L354.3,157.6
		L360.0,156.7 L365.6,155.7 L371.3,152.3 L377.0,151.6 L382.6,151.5 L388.3,151.1 L394.0,150.0 L399.6,148.4
		L405.3,147.0 L411.0,146.1 L416.6,145.5 L422.3,145.0 L428.0,140.9 L433.6,136.7 L439.3,135.8 L445.0,134.2
		L450.6,133.2 L456.3,133.0 L462.0,130.6 L467.6,130.4 L473.3,127.1 L479.0,126.5 L484.6,126.4 L490.3,126.3
		L496.0,118.1 L501.6,116.6 L507.3,115.8 L513.0,114.9 L518.6,109.5 L524.3,108.4 L530.0,102.3 L535.7,100.9
		L541.3,99.0 L547.0,98.8 L552.7,94.6 L558.3,93.9 L564.0,89.5 L569.7,86.1 L575.3,84.5 L581.0,83.0
		L586.7,80.1 L592.3,79.0 L598.0,50.6 L603.7,50.0 L609.3,41.4 L615.0,26.0  '/></g>
	</g>
<g fill="none" color="#FFFFFF" stroke="rgb(  0, 158, 115)" stroke-width="2.00" stroke-linecap="butt" stroke-linejoin="miter">
</g>
<g fill="none" color="black" stroke="currentColor" stroke-width="2.00" stroke-linecap="butt" stroke-linejoin="miter">
</g>
<g fill="none" color="black" stroke="black" stroke-width="1.00" stroke-linecap="butt" stroke-linejoin="miter">
</g>
<g fill="none" color="black" stroke="currentColor" stroke-width="1.00" stroke-linecap="butt" stroke-linejoin="miter">
	<path stroke='black'  d='M53.9,18.1 L53.9,428.0 L615.0,428.0 L615.0,18.1 L53.9,18.1 Z  '/></g>
<g fill="none" color="black" stroke="currentColor" stroke-width="1.00" stroke-linecap="butt" stroke-linejoin="miter">
</g>
</g>
</svg>
